!!!!SEGMENT: pl-stab--st-a--003_anonim--christus-iam-surexit.krn
!!!cenid: 15xx:358
!!!COM: Anonim
!!!COM-rismID: pe30004985
!!!CDT:
!!!CNT:
!!!OTL: Christus iam surexit
!!!PDT: 1586
!!!AGN: Sacred
!!!SMS-siglum: PL-STAb
!!!SMS-shelfmark: St A
!!!SMS-shelfwork: 003 W
!!!NIFC-rismSourceID:
!!!NIFC-rismChildID:
!!!NIFC-islandoraID:
!!!URL-pdf-islandora:
!!!URL-scan: http://staniatki.studiokropka.pl/mbp/#/item/429 @EN{Scan on the Music of the Polish Benedictine Sisters Website} @PL{Skany w portalu Muzyka Benedyktynek Polskich}
!!!IIIF:
!!!ONB-nifc:
!!!COM: Anonim
!!!CDT:
!!!OTL@@LAT: Christus iam surexit
!!!OTL@@POL: Christus zmartwÿchwstał iest
!!!TXO: Latin, Polish
!!!ODT:
!!!ARL: Opactwo św. Wojciecha, Staniątki
!!!voices: 1
!!!AIN: 1 empty
!!!key:
**kern	**text	**text	**text	**text	**text	**text
*Iempty	*	*	*	*	*	*
*I"	*	*	*	*	*	*
*clefC1	*	*	*	*	*	*
*k[]	*	*	*	*	*	*
*g:	*	*	*	*	*	*
*M2/1	*	*	*	*	*	*
=1-	=1-	=1-	=1-	=1-	=1-	=1-
1dd\	Chri-	Tri-	Chri-	Chri-	Le-	Trzÿ
!LO:TX:t=P:problem=długie s i tutaj i w innych słowach	!	!	!	!	!	!
1a\	-stus	-du-	-ste	-stus	-zał	Ma-
=2-	=2-	=2-	=2-	=2--	=2-	=2-
1cc\	iam	-o	su-	zmar-	trzÿ	-ri-
1b\	su-	.	-re-	-twÿch-	dni	-ie
=3-	=3-	=3-	=3-	=3-	=3-	=3-
2a\	.	.	.	.	.	.
1dd\	.	hu-	.	-wstał	w gro-	.
2cc\	-re-	-ma-	-xi-	.	-bie	po-
=4-	=4-	=4-	=4-	=4-	=4-	=4-
0dd\	-xit	-tus	-sti	jest	.	-slÿ
=5-	=5-	=5-	=5-	=5-	=5-	=5-
1cc\	ma-	ma-	ex-	nam	dal	dro-
2b\	-la	-nus	-em-	.	.	-gie
2g\	.	.	-plum	na	bok	.
=6-	=6-	=6-	=6-	=6-	=6-	=6-
2a\	no-	pe-	.	przÿ-	prze-	ma-
2cc\	-stra	-des	de-	-kład	-kloc	-sci
1dd\	.	.	.	.	.	nio-
=7-	=7-	=7-	=7-	=7-	=7-	=7-
1cc\	te-	la-	-di-	dał	so-	.
1b\	-xit	-tus	-sti	jest	-bie	-slÿ
=8-	=8-	=8-	=8-	=8-	=8-	=8-
0a\	.	.	.	.	.	.
=9-	=9-	=9-	=9-	=9-	=9-	=9-
2.b\	Il-	de-	ut	iz	bok	chcia-
4cc\	.	.	.	.	.	.
2.dd\	-los	-dit	nos	mą-	rę-	-lÿ
4cc\	.	.	.	.	.	.
=10-	=10-	=10-	=10-	=10-	=10-	=10-
2.a\	quos	per-	re-	-mÿ	-ce	Chri-
4b\	.	.	.	.	.	.
1cc\	di-	-fo-	-sur-	zmar-	no-	-sta
=11-	=11-	=11-	=11-	=11-	=11-	=11-
2b\	.	.	.	.	.	po-
2cc\	.	.	.	.	-dze	-ma-
2a\	-le-	.	-ga-	-twÿch-	.	.
2dd\	.	-ra-	.	-wsta-	o-	-zac
=12-	=12-	=12	-=12-	=12-	=12-	=12-
0cc#\X	-xit	-re	-mus	-ci	-bie	.
=13-	=13-	=13-	=13-	=13-	=13-	=13-
1dd\	hos	vo-	te-	z Bo-	na	ie-
1a\	ad	-lens	-cum	-giem	zba-	-mu
=14-	=14-	=14-	=14-	=14-	=14-	=14-
1cc\	ce-	nos	que	kro-	-wie-	czesć
1g\	-los	sal-	vi-	-lo-	-nie	i
=15-	=15-	=15-	=15-	=15-	=15-	=15-
!!LO:PB:g=original
2a\	.	.	.	.	.	chwa-
2dd\	ve-	-wa-	-va-	-wa-	to-	-łe
1cc\	-xit	-re	-mus	-ci	-bie	dac
=16-	=16-	=16-	=16-	=16-	=16-	=16-
0dd\	.	.	.	.	.	.
=17-	=17-	=17-	=17-	=17-	=17-	=17-
2.ee\	Al-	.	Al-	.	.	Al-
4dd\	.	.	.	.	.	.
2cc\	-le-	.	-le-	.	.	-le-
2b\	.	.	.	.	.	.
=18-	=18-	=18-	=18-	=18-	=18-	=18-
1a\	-lu-	.	-lu	.	.	-lu
1dd\	.	.	.	.	.	.
=19-	=19-	=19-	=19-	=19-	=19-	=19-
2cc\	.	.	.	.	.	.
2b\	.	.	.	.	.	.
1cc\	.	.	.	.	.	.
=20-	=20-	=20-	=20-	=20-	=20-	=20-
0dd\	-ja	.	ja	.	.	ja
=21-	=21-	=21-	=21-	=21-	=21-	=21-
1g\	Kÿ-	.	Kÿ-	.	.	kÿ-
2.cc\	-ri-	.	-ri-	.	.	-ri-
4b\	.	.	.	.	.	.
=22-	=22-	=22-	=22-	=22-	=22-	=22-
1a\	-e	.	-e	.	.	-e
2cc\	e-	.	e-	.	.	e-
2a\	.	.	.	.	.	.
=23-	=23-	=23-	=23-	=23-	=23-	=23-
2b\	.	.	.	.	.	.
2cc\	-leÿ-	.	-leÿ	.	.	-leÿ-
2a\	.	.	.	.	.	.
2dd\	.	.	.	.	.	.
=24	-=24-	=24-	=24-	=24-	=24-	=24-
0cc\	.	.	.	.	.	.
=25-	=25-	=25-	=25-	=25-	=25-	=25-
0dd\	-son	.	-son	.	.	-son
=	=	=	=	=	=	=
*-	*-	*-	*-	*-	*-	*-
!!!EFL:
!!!YEM: Creative Commons CC/BY/NC/SA 4.0
!!!EEV:
!!!ONB: Encoded in vim by Marcin Konik
!!!CharacterEncoding: utf-8
!!!RDF**kern: l=long note in original notation
!!!RDF**kern: i=editorial accidental
!!muse2ps: z14jc180F
!!!pag: p. 5r
!!!ENC: Marcin Konik
!!!END: 2015-03-14
!!!EED: Marcin Konik
!!!ENC: Leszek Kubiak
!!!END: 2020-01-29
!!!YEC: Copyright 2022 Narodowy Instytut Fryderyka Chopina (https://polishscores.org)
!!!YEM: License CC-BY-4.0 (https://creativecommons.org/licenses/by/4.0)
